images/spinner-track-24.svg

<svg height="24" viewBox="0 0 24 24" width="24" xmlns="http://www.w3.org/2000/svg"><path d="m12 24c-6.627417 0-12-5.372583-12-12s5.372583-12 12-12 12 5.372583 12 12-5.372583 12-12 12zm0-2c5.5228475 0 10-4.4771525 10-10s-4.4771525-10-10-10-10 4.4771525-10 10 4.4771525 10 10 10z"/></svg>

<?xml version="1.0" encoding="UTF-8"?>
<svg width="24px" height="24px" viewBox="0 0 24 24" version="1.1" xmlns="http://www.w3.org/2000/svg" xmlns:xlink="http://www.w3.org/1999/xlink">
    <!-- Generator: Sketch 53 (72520) - https://sketchapp.com -->
    <title>Interderminate Track - 24</title>
    <desc>Created with Sketch.</desc>
    <g id="Interderminate-Track---24" stroke="none" stroke-width="1" fill="none" fill-rule="evenodd">
        <path d="M12,24 C5.372583,24 0,18.627417 0,12 C0,5.372583 5.372583,0 12,0 C18.627417,0 24,5.372583 24,12 C24,18.627417 18.627417,24 12,24 Z M12,22 C17.5228475,22 22,17.5228475 22,12 C22,6.4771525 17.5228475,2 12,2 C6.4771525,2 2,6.4771525 2,12 C2,17.5228475 6.4771525,22 12,22 Z" id="Combined-Shape" fill="#000000" fill-rule="nonzero"></path>
    </g>
</svg>
